X: 3266
T: MERRY MASONS
%R: jig
B: James Kerr "Merry Melodies" v.3 p.29 #266
Z: 2016 John Chambers <jc:trillian.mit.edu>
N: This tune is also in the waltz section, v.3 #312.
M: 6/8
L: 1/8
K: G
uD |\
GAB BAG | FGA AFD | GAB BAG | Bdd d2 ::\
B |\
cde d2c | BAG d2B | cBc Adc | BGG G2 :|

%%sep 1 1 500
%%sep 1 1 500

